view-grid-plus.svg

<svg fill="currentColor" viewBox="0 0 24 24"><path d="M13 3v8h8V3zM3 21h8v-8H3zM3 3v8h8V3zm10 13h3v-3h2v3h3v2h-3v3h-2v-3h-3z"/></svg>

<svg  viewBox="0 0 24 24" fill="currentColor"><path  d="M13 3V11H21V3H13M3 21H11V13H3V21M3 3V11H11V3H3M13 16H16V13H18V16H21V18H18V21H16V18H13V16Z"/></svg>
